X: 1
T: Halloween, The
M: 6/8
L: 1/8
R: jig
K: Dmaj
F |:B3 Bcd |c2 A ABc |B2 G GAB |A2 F FEF |
B3 Bcd |c2 A ABc |def edc |1B3 BAF :|2B3 Bde ||
|:f2 f fed |cde Adc |Bcd dcB |cFF Fde |
f2 f fed |cde Adc |Bcd cBA |1B3 Bde :|2B3 B3||
